X:546
T: Die Hartherzige"
N: Z1226
O: Europa, Mitteleuropa, Deutschland, Boehmen
R: Liebes - Lied
M: 3/4
L: 1/8
K: G
DD | G3BG2 | A2G2AB | AFD2
DD | A3cA2 | c2A2d2 | BAG2
Bc | d3cd2 | c2e2
AB | c3Bc2 | B2d2
D2 | G3FGF | A2G2AB | A2G2
G2 | B3GBc | d3GAB | G4

